X: 16
T: The Frieze Breeches
R: jig
M: 6/8
L: 1/8
K: Dmix
"D"FED EFG | Add cAG | A/A/A A "G"BAG | "D"FAF "A7"GFE |
"D"FED EFG | Add cAG | A/A/A A "A"GEA | "D"DED D3 :|
|: "D"d2 e {g}fed | "C"e/e/e d cAG | "D"A/A/A A "G"BAG | "D"FAF "A7"GFE |
"D"d2 e {g}fed | "C"e/e/e d cAG |"D" A/A/A A "A"GEA | "D"DED D3 :|


Tune 34	Setting 12442

